X:1
T:12. Psalmus (in 6 Versi)
T:12. Psalmus (in 6 Versi)
T:Da Jesus an dem Kreuze stund. [Complete Lyrics: 9 Versi] 
T:Samuel Scheidt (1587 - 1654) 
T:from Tabulatura nova. 1624 Erster Theil SSWV 113
C:Samuel Scheidt
%%score 1 { ( 2 3 ) | ( 4 5 ) }
L:1/8
Q:1/4=118
M:4/4
K:C
V:1 treble nm="Stimme"
V:2 treble nm="Orgel"
V:3 treble 
V:4 bass 
V:5 bass 
V:1
"^1. Versus. Choralis in Cantu." z8 | z8 | z8 | z8 | z8 | z8 | z8 | z8 | z4 B4 | c4 B4 | A4 B2 c2 | %11
 d4 c4 | B8 | z8 | z4 c4 | d4 B4 | c4 A4 | A4 F4 | E8 | z8 | z4 D4 | E4 E4 | G4 G4 | E4 ^F4 | G8 | %25
 z8 | z4 B4 | c4 B4 | A4 ^G4 | A4 F4 | E8 | z8 | z4 D4 | E4 E4 | A4 A4 | G4 F4 | %36
[Q:1/4=118] E8-[Q:1/4=117]"^.9"[Q:1/4=117]"^.8"[Q:1/4=117]"^.5"[Q:1/4=116]"^.7" | %37
[Q:1/4=115]"^.3" E8-[Q:1/4=113]"^.3"[Q:1/4=110]"^.6"[Q:1/4=107]"^.1" | %38
[Q:1/4=102]"^.8" E8-[Q:1/4=97]"^.5"[Q:1/4=91]"^.4"[Q:1/4=84]"^.2" |[Q:1/4=76] E8 || %40
[M:4/4][K:treble-8][Q:1/4=103]"^2. Versus. Choralis in Tenore." z8 | z8 | z8 | z8 | B8 | c4 B4 | %46
 A4 B4 | d4 c4 | B8 | z8 | c8 | d4 B4 | c4 A4 | A4 F4 | E8 | z8 | D8 | E4 E4 | G4 G4 | E4 ^F4 | %60
 G8 | z8 | B8 | c4 B4 | A4 ^G4 | A4 F4 | E8 | z8 | D8 | E4 E4 | A4 A4 | %71
[Q:1/4=103] G4[Q:1/4=101]"^.9" F4[Q:1/4=102]"^.8"[Q:1/4=102]"^.5"[Q:1/4=101]"^.1"[Q:1/4=100][Q:1/4=98]"^.6" | %72
[Q:1/4=96]"^.8" E8-[Q:1/4=94]"^.7"[Q:1/4=92]"^.2"[Q:1/4=89]"^.3"[Q:1/4=86][Q:1/4=82]"^.2"[Q:1/4=77]"^.9" | %73
[Q:1/4=68] E8 ||[M:4/4][K:treble][Q:1/4=123]"^3. Versus. Choralis in Cantu." z8 | z4 B4 | c4 B4 | %77
 A4 B4 | d4 c4 | B8 | z4 c4 | d4 B4 | c4 A4 | A4 F4 | E8 | z4 D4 | E4 E4 | G4 G4 | E4 ^F4 | G8 | %90
 z4 B4 | c4 B4 | A4 ^G4 | A4 F4 | E8 | z4 D4 | E4 E4 | %97
[Q:1/4=123] A4[Q:1/4=122]"^.6" A4[Q:1/4=122]"^.9"[Q:1/4=121]"^.9" | %98
[Q:1/4=120]"^.8" G4[Q:1/4=116]"^.8" F4[Q:1/4=119]"^.1"[Q:1/4=118][Q:1/4=113]"^.9"[Q:1/4=112]"^.2" | %99
[Q:1/4=110]"^.3" E8-[Q:1/4=106][Q:1/4=100]"^.8" |[Q:1/4=88] E8 || %101
[Q:1/4=114]"^4. Versus. (Choralis in Cantu.)" B8 | c4 B4 | A4 B4 | d4 c4 | B8 | z4 c4 | d4 B4 | %108
 c4 A4 | A4 F4 | E8 | z4 D4 | E4 E4 | G4 G4 | E4 ^F4 | G8 | z4 B4 | c4 B4 | A4 ^G4 | A4 F4 | E8 | %121
 z4 D4 | E4 E4 | A4 A4 | G4 F4 | %125
[Q:1/4=114] E8-[Q:1/4=113]"^.9"[Q:1/4=113]"^.8"[Q:1/4=113]"^.1"[Q:1/4=112]"^.7"[Q:1/4=111]"^.1"[Q:1/4=110]"^.4"[Q:1/4=107]"^.7" | %126
[Q:1/4=106]"^.6" E8-[Q:1/4=102]"^.6"[Q:1/4=101][Q:1/4=95]"^.6"[Q:1/4=93]"^.5"[Q:1/4=86]"^.5"[Q:1/4=83]"^.9"[Q:1/4=75]"^.2" | %127
[Q:1/4=72] E8 ||[K:bass][Q:1/4=118]"^5. Versus. Choralis in Basso." z8 | z8 | z8 | z4 B,4 | %132
 C4 B,4 | A,4 B,4 | D4 C4 | B,8 | z8 | C8 | D4 B,4 | C4 A,4 | A,4 F,4 | E,8 | z8 | D,8 | E,4 E,4 | %145
 G,4 G,4 | E,4 ^F,4 | G,8 | z8 | B,8 | C4 B,4 | A,4 ^G,4 | A,4 F,4 | E,8 | z8 | D,8 | %156
[Q:1/4=118] E,4[Q:1/4=117]"^.9" E,4[Q:1/4=117]"^.7"[Q:1/4=117]"^.6"[Q:1/4=117]"^.4" | %157
[Q:1/4=117]"^.2" A,4[Q:1/4=115]"^.8" A,4[Q:1/4=116]"^.9"[Q:1/4=116]"^.6"[Q:1/4=116]"^.2"[Q:1/4=115]"^.3"[Q:1/4=114]"^.7"[Q:1/4=114]"^.1" | %158
[Q:1/4=113]"^.4" G,4[Q:1/4=110] F,4[Q:1/4=112]"^.7"[Q:1/4=111]"^.8"[Q:1/4=110]"^.9"[Q:1/4=108]"^.9"[Q:1/4=107]"^.8"[Q:1/4=106]"^.6" | %159
[Q:1/4=105]"^.3" E,8-[Q:1/4=104][Q:1/4=102]"^.5"[Q:1/4=101][Q:1/4=99]"^.4"[Q:1/4=97]"^.7"[Q:1/4=95]"^.9"[Q:1/4=94] | %160
[Q:1/4=92] E,8 ||[M:4/4][K:treble][Q:1/4=85]"^6. Versus. Choralis in Cantu per Semitonia." z8 | %162
 B8 | c4 B4 | A4 B4 | d4 c4 | B8 | z8 | c8 | d4 B4 | c4 A4 | A4 F4 | E8 | z8 | D8 | E4 E4 | G4 G4 | %177
 E4 ^F4 | G8 | z8 | z4 B4 | c4 B4 | A4 ^G4 | A4 F4 | E8 | z8 | D8 | E4 E4 | A4 A4 | %189
 G4[Q:1/4=85] F4[Q:1/4=84]"^.9" |[Q:1/4=84]"^.5" E8-[Q:1/4=83]"^.6"[Q:1/4=82]"^.2"[Q:1/4=80]"^.1" | %191
[Q:1/4=77]"^.2" E8-[Q:1/4=73]"^.5"[Q:1/4=69][Q:1/4=63]"^.5" |[Q:1/4=57] E8 |] %193
V:2
 z8 | z8 | z8 | z8 | z8 | z8 | z8 | z8 | z4 B4 | c4 B4 | A4 B2 c2 | d4 c4 | B8 | z8 | z4 c4 | %15
w: ||||||||Da|Je- sus|an dem _|Kreu- ze|stund,||und|
 d4 B4 | c4 A4 | A4 F4 | E8 | z8 | z4 D4 | E4 E4 | G4 G4 | E4 ^F4 | G8 | z8 | z4 B4 | c4 B4 | %28
w: Ihm sein|Leich- nahm|ward ver-|wundt,||so|gar mit|bitt- ren|Schmer- *|zen,||die|sie- ben|
 A4 ^G4 | A4 F4 | E8 | z8 | z4 D4 | E4 E4 | A4 A4 | G4 F4 | E8- | E8- | E8- | E8 ||[M:4/4] B8 | %41
w: Wort, die|Je- sus|spracht,||be-|tracht' in|dei- nem|Her- *|zen.|_||||
 c4 B4- | B2 A4 G2- | G2 ^FE F4 | G4 G2 =F2 | E2 F2 G2 D2 | E2 ^F2 G2 DE | =F4 EDE^F | %48
w: |||||||
 ^GEA^F GAFG | A2 c2 d2 B2 | c2 A2 G2 A2- | A2 B4 G2- | G2 A4 F2 | E4 ABcA | B2 c2 B4 | %55
w: |||||||
 A2 A2 B2 B2 | d4 A4 | z2 G2 B2 B2 | e2 GF EDEB, | C4 A,2 DC | B,2 B2 c2 B2 | A2 ^G2 cBcA | %62
w: |||||||
 ^GEA^F GAFG | A4 z2 E2- | E2 D2 E2 B,2 | C2 E2 A,2 A,2 | A6 G2 | ^F8- | F>DB,>C D>CB,>A, | %69
w: |||||||
 G,>EC>D E>DC>B, | C>FD>E F>ED>C | B,G,B,C D2 A,D | CDED CB, C2 | B,8 ||[M:4/4] z8 | z4 B4 | %76
w: ||||||Zum|
 c4 B4 | A4 B4 | d4 c4 | B8 | z4 c4 | d4 B4 | c4 A4 | A4 F4 | E8 | z4 D4 | E4 E4 | G4 G4 | E4 ^F4 | %89
w: and'rn, g'denk|sein'r Barm-|herz- ig-|keit,|die|Gott am|Schä- cher|hat ge-|leit,|sprach|Gott gar|gnä- di-|gli- *|
 G8 | z4 B4 | c4 B4 | A4 ^G4 | A4 F4 | E8 | z4 D4 | E4 E4 | A4 A4 | G4 F4 | E8- | E8 || B8 | %102
w: che:|Für|wahr! Du|wirst heut|bei mir|sein|in|mei- nes|Va- ters|Rei- *|che.|_|Zum|
 c4 B4 | A4 B4 | d4 c4 | B8 | z4 c4 | d4 B4 | c4 A4 | A4 F4 | E8 | z4 D4 | E4 E4 | G4 G4 | E4 ^F4 | %115
w: dritt'n, g'denk|sei- ner|gro- ßen|Noth,|las|Dir die|Wort nicht|sein ein'n|Spott:|Weib,|schau Dein'n|Sohn gar|e- *|
 G8 | z4 B4 | c4 B4 | A4 ^G4 | A4 F4 | E8 | z4 D4 | E4 E4 | A4 A4 | G4 F4 | E8- | E8- | E8 || B8 | %129
w: ben;|Jo-|han- nes,|nimm dein'r|Mut- ter|wahr,|du|sollt ihr'r|e- ben|pfle- *|gen.|_|||
 c4 B4 | A4 B4 | c4 d4 | e2 dc d2 cB | c2 BA d2 cB | AGAB cdec | ^d2 e4 d2 | e2 c2 =d2 B2 | %137
w: ||||||||
 e4 z2 e2 | d2 A2 d2 B2 | e2 c4 AB | c2 Bc d4- | d2 c2 B4 | A4 G4 | ^F2 dc B2 BA | G2 E^F G2 GA | %145
w: ||||||||
 B4 d4 | z2 cB A4 | z2 dc B4 | d8 | z2 dc BcBA | GGGA BcdB | e4 B4 | z AAB cBcA | c2 BA ^G A2 G | %154
w: |||||||||
 z A=GF ED E2 | ^F2 G4 F2 | GEA^F ^GAFG | A8 | BGBc dcAB | z cBA ^GAG^F | ^G8 ||[M:4/4] z8 | B8 | %163
w: ||||||||Zum|
 c4 B4 | A4 B4 | d4 c4 | B8 | z8 | c8 | d4 B4 | c4 A4 | A4 F4 | E8 | z8 | D8 | E4 E4 | G4 G4 | %177
w: fünf- ten,|g'denk sein'r|Bit- ter-|keit,||die|Gott am|heil'- gen|Kreuz aus-|schreit:||Mein|Gott, wie|hast du mich|
 E4 ^F4 | G8 | z8 | z4 B4 | c4 B4 | A4 ^G4 | A4 F4 | E8 | z8 | D8 | E4 E4 | A4 A4 | G4 F4 | E8- | %191
w: ver- las-|sen?||Das|E- lend,|das ich|lei- den|muß,||das|ist ganz|üb'r die|Ma- *|ßen.|
 E8- | E8 |] %193
w: _||
V:3
 B,8 | C4 B,4 | A,4 B,2 C2 | D4 C4 | B,2 C2 D4 | G,2 A,2 B,2 D2 | C2 A,2 D4 | A,2 B,2 CDEC | %8
 D6 CB, | E8 | C4 z2 E2 | F4 E4 | D4 E2 F2 | G2 F2 E4 | F4 E4 | A4 G4- | G4 F4- | F2 E2 D2 C2 | %18
 B,4 C4 | D6 CB, | A,6 B,2 | C8 | B,2 C2 B,4 | C6 DC | B,2 B,2 C2 B,2 | D2 C2 B,2 A,2 | %26
 B,2 C2 D2 B,2 | E8 | C2 A,2 B,4 | C4 z2 DC | B,2 C4 C2 | B,2 E4 E2 | D2 B,2 A,2 D2- | D2 C2 B,4 | %34
 A,2 D2 E4 | D2 C4 B,2 | C4 B,4 | A,2 C2 B,4 | C2 B,2 C2 A,2 | B,8 ||[M:4/4] x8 | x8 | x8 | x8 | %44
 x8 | x8 | x8 | x8 | x8 | x8 | x8 | x8 | x8 | x8 | x8 | x8 | x8 | x8 | x8 | x8 | x8 | x8 | x8 | %63
 x8 | x8 | x8 | x8 | x8 | x8 | x8 | x8 | x8 | x8 | x8 ||[M:4/4] x8 | x8 | x8 | x8 | x8 | x8 | x8 | %81
 x8 | x8 | x8 | x8 | x8 | x8 | x8 | x8 | x8 | x8 | x8 | x8 | x8 | x8 | x8 | x8 | x8 | x8 | x8 | %100
 B,8 || x8 | x8 | x8 | x8 | x8 | x8 | x8 | x8 | x8 | x8 | x8 | x8 | x8 | x8 | x8 | x8 | x8 | x8 | %119
 x8 | x8 | x8 | x8 | x8 | x8 | x8 | x8 | B,8 || z4 G4 | A2 G^F G2 =FE | F2 ED G2 F2 | %131
 E2 F2 D2 G2- | G2 A4 ^G2 | A2 E2 =G4 | FEFG A2 GE | ^F2 G2 F4 | E2 A2 ^F2 G2- | G2 A2 G2 E2 | %138
 ^F6 G2- | G2 E4 CD | E4 A2 BA | ^G2 A4 G2 | A2 A,2 B,2 B,2 | D2 ^FE D2 DC | B,4 E4 | %145
 z2 DC B,2 B,A, | G,4 z2 DC | B,4 z2 DC | B,2 G,A, B,A,B,C | D4 G2 F2 | E4 D4 | z CCD EDEB, | %152
 C4 A,4 | z EDC[I:staff +1] B,A, B,2 | A,2[I:staff -1] D4 ^C2 | z DC[I:staff +1]B, A,G, A,2 | %156
 G,2 C2 B,4 |[I:staff -1] ^CA,DB, CDB,C | D3 E FECD | E2 DC[I:staff +1] B,CB,A, | B,8 || %161
[M:4/4][I:staff -1] B,4 D2 ^D2 | E4 B,4 | z2 E2 G2 ^G2 | A4 E4 | A4 ^G2 A2 | E2 E2 ^F2 =F2 | %167
 E4 D4 | z2 F2 E2 E2 | F2 ^F2 G2 ^G2 | A4 E4 | A,8 | z8 | z2 A,2 G,4 | A,2 A,2 _B,2 =B,2- | %175
 B,2 C4 ^C2 | D6 E2 | E4 D4- | D4 E4- | E4 ^F4 | G4 D4 | E8 | E4 ^D2 =D2 | ^C2 A,2 D4- | %184
 D2 ^CB, C4 | D4 E4 | A,8 | z2 B,2 C2 ^C2 | D2 D2 E4 | D4 ^C2 D2- | D2 =C2 B,4 | C8 | B,8 |] %193
V:4
 z8 | z4 E,4 | F,4 E,4 | D,4 E,2 F,2 | G,6 F,2 | E,2 F,2 G,2 D,2 | E,2 ^F,2 G,4 | F,2 G,2 A,4- | %8
w: ||||||||
 A,2 ^G,^F, G,4 | A,E, A,4 ^G,2 | A,2 F,2 =G,4 | A,2 B,2 G,4- | G,4 G,2 A,2 | B,4 C2 B,2 | %14
w: ||||||
 A,2 B,2 C4 | A,B,CA, D4 | E2 D2 C4 | D4 A,4 | ^G,4 A,4- | A,2 =G,^F, G,4- | G,2 ^F,E, F,4 | G,8 | %22
w: ||||||||
 G,2 A,2 G,4- | G,4 A,4 | G,8 | A,2 G,2 F,2 E,2 | D,2 E,2 ^F,2 ^G,2 | A,6 ^G,2 | A,B,CD E4 | %29
w: |||||||
 z2 A,2 DCB,A, | ^G,2 A,4 A,2 | =G,4 G,3 A, | B,2 G,4 F,2 | E,2 A,4 G,2- | G,2 F,2 A,4 | %35
w: ||||||
 B,2 G,2 A,2 F,2 | G,2 A,4 ^G,2 | A,4 E,4- | E,2 D,2 E,2 ^F,2 | ^G,8 ||[M:4/4] z8 | z8 | z8 | z8 | %44
w: |||||||||
 B,8 | C4 B,4 | A,4 B,4 | D4 C4 | B,8 | z8 | C8 | D4 B,4 | C4 A,4 | A,4 F,4 | E,8 | z8 | D,8 | %57
w: Zum|er- sten|sprach'r gar|sü- ße-|lich||zu|si- nem|Va- ter im|Him- mel-|reich,||mit|
 E,4 E,4 | G,4 G,4 | E,4 ^F,4 | G,8 | z8 | B,8 | C4 B,4 | A,4 ^G,4 | A,4 F,4 | E,8 | z8 | D,8 | %69
w: Kräf- ten|und mit|Sin- *|nen:||Ver-|gieb ihn'n|Vat'r, sie|wis- sen|nicht,||was|
 E,4 E,4 | A,4 A,4 | G,4 F,4 | E,8- | E,8 ||[M:4/4][I:staff -1] E4 F2 E2 | D2 EF G2 F2 | %76
w: sie an|mir voll-|brin- *|gen.|_|||
 E2 A4 G2- | G2 ^F2 G2[I:staff +1] G,A, | B,C D2 A,2[I:staff -1] A2- | A2 ^G^F G4 | A2 E2 A2 G2 | %81
w: |||||
 ^F2 G4 E2- | E2 =F4 D2- | D2 ^C2 D2[I:staff +1] A,B, | C2 G,2 A,2 B,2 | C2 A,2 B,2 G,2 | %86
w: |||||
 C2 B,2 A,B,CD | E2 B,4 G,2- | G,2 CB, A,G, A,2 | G,2 B,2 C2 B,2 | A,2 A,4 ^G,2 | %91
w: |||||
 A,B,C[I:staff -1]D E2 G2- | G2 F2 E2[I:staff +1] B,2 | C2 A,4 D2- | D2 ^CB, C4 | D2 G,2 B,2 B,2 | %96
w: |||||
 C2 A,2 C2 C2 |[I:staff -1] F2[I:staff +1] A,2[I:staff -1] D2 D2 | E2 B,C D2[I:staff +1] A,B, | %99
w: |||
 C2 ^G,2 A,4 | [E,^G,]8 || z2 E,^F, ^G,A,F,G, | A,2[I:staff -1] E^F ^GAFG | %103
w: ||||
 AD^CD[I:staff +1] G,[I:staff -1]GEG |[I:staff +1] DD,/E,/ F,F,/G,/ A,A,,/B,,/ C,C,/D,/ | %105
w: ||
 E,E,/^F,/ G,G,/A,/ B,G,/A,/ B,B,/C/ |[I:staff -1] DD/E/ FF/G/ A[I:staff +1]A,/G,/ F,F,/E,/ | %107
w: ||
 D,D/C/ B,B,/A,/ G,[I:staff -1]G/F/ EE/D/ |[I:staff +1] CC,/B,,/ A,,A,,/G,,/ F,,F,/G,/ A,A,/B,/ | %109
w: ||
 CA,/G,/ F,F,/E,/ D,D,/E,/ F,F,/G,/ | A,E,/D,/ C,C,/B,,/ A,,A,,/B,,/ C,C,/D,/ | %111
w: ||
 E,C,/D,/ E,E,/F,/ G,G,/F,/ G,/F,/E,/D,/ | C,E,/D,/ E,/D,/C,/B,,/ A,,/B,,/C,/D,/ E,/F,/G,/A,/ | %113
w: ||
 E,G,/F,/ G,/F,/E,/D,/ C,/D,/E,/F,/ G,/A,/B,/C/ | %114
w: |
 G,/F,/G,/C,/ C/B,/C/C,/ A,/G,/^F,/E,/ D,/C,/B,,/A,,/ | B,,G,,C,B,, E,C,G,E, | %116
w: ||
 B,G,CB,[I:staff -1] DB,ED | E>CF>E D>B,E>D |[I:staff +1] C>A,D>C B,>E,[I:staff -1]E>D | %119
w: |||
[I:staff +1] ^C>A,B,>C D>D,F,>G, | A,>E,F,>G, A,>A,,B,,>^C, | D,>D,E,>^F, G,>G,,A,,>B,, | %122
w: |||
 C,>G,A,>B, C>C,D,>E, | F,>C[I:staff -1]D>E F>[I:staff +1]F,A,>B, | C>G,B,>C D>D,F,>G, | %125
w: |||
 A,>A,,C,>D, E,>A,C>D | E>E,^F,>^G, A,>A,,C,>D, | [E,^G,]8 || z8 | z8 | z8 | z4 B,4 | C4 B,4 | %133
w: ||||||Nun|mer- ket,|
 A,4 B,4 | D4 C4 | B,8 | z8 | C8 | D4 B,4 | C4 A,4 | A,4 F,4 | E,8 | z8 | D,8 | E,4 E,4 | G,4 G,4 | %146
w: was das|viert' Wort|war:||mich|dürst't so|hart ohn'|Un- ter-|laß,||schrie|Gott mit|lau- ter|
 E,4 ^F,4 | G,8 | z8 | B,8 | C4 B,4 | A,4 ^G,4 | A,4 F,4 | E,8 | z8 | D,8 | E,4 E,4 | A,4 A,4 | %158
w: Stim- *|me.||Das|mensch- lich'|Heil thät|Er be-|gehr'n,||sein'r|Nä- gel|ward Er|
 G,4 F,4 | E,8- | E,8 ||[M:4/4] z8 | z2 E,2 G,2 ^G,2 | A,4 E,4 | z2 A,2 ^G,2 =G,2 | %165
w: em- pfin-|dend.|_|||||
 ^F,2 =F,2 E,2 A,2- | A,2 ^G,2 B,4- | B,2 A,4 ^G,2 | A,4 A,4 | D4 E4 | A,2 A,2 C2 ^C2 | D4 z2 D2 | %172
w: |||||||
 ^C2 =C2 A,B,CD | E2 D4 ^C2 | D4 G,4- | G,2 A,2 E,4 | D,2 G,4 C2- | C2 A,2 z2 A,2 | _B,2 =B,4 C2- | %179
w: |||||||
 C2 ^C2 D4 | D2 C2 B,2 A,2 | ^G,2 A,4 G,2 | A,4 B,4 | E,4 F,2 G,2 | A,2 G,2 A,4 | D,4 A,4 | %186
w: |||||||
 z2 D,2 F,2 ^F,2 | G,2 ^G,2 A,2 A,2 | ^F,2 =F,2 E,4 | z4 z2 A,2 | ^G,2 A,4 G,2 | A,8 | ^G,8 |] %193
w: |||||||
V:5
 z8 | z8 | z8 | z8 | z4 B,,4 | C,4 B,,4 | A,,4 B,,2 C,2 | D,4 C,4 | B,,8 | z4 E,4 | F,4 E,4 | %11
 D,4 E,2 F,2 | G,2 F,2 E,4- | E,2 D,2 C,4 | F,2 G,2 A,2 G,2 | ^F,4 G,2 =F,2 | E,4 F,2 E,2 | %17
 D,4 D,4 | E,2 D,2 C,2 A,,2 | B,,6 C,2 | D,4 D,4 | C,2 B,,2 C,2 D,2 | E,6 D,2 | C,2 B,,2 A,,4 | %24
 z4 E,4 | F,2 E,2 D,2 C,2 | B,,6 B,,2 | A,,B,,C,D, E,4 | F,4 E,2 E,2 | A,G,F,E, D,4 | %30
 E,D,C,B,, A,,B,,C,D, | E,2 C,3 D,E,F, | G,4 z4 | z8 | z2 D,4 C,2 | B,,2 E,4 D,2 | %36
 C,2 B,,A,, E,,4 | z2 A,,4 ^G,,2 | A,,8 | E,,8 ||[M:4/4] z8 | z4 B,4 | C4 B,4 | A,2 G,2 A,4 | %44
 G,2 F,2 E,2 D,2 | C,2 D,2 E,2 B,,2 | C,2 D,2 G,,2 G,2 | D,E,F,G, A,4 | E,2 D,2 E,4 | %49
 z2 A,2 B,2 G,2 | A,2 F,2 E,2 F,2- | F,2 G,4 E,2- | E,2 F,4 D,2- | D,2 ^C,2 D,2 A,2 | %54
 ^G,2 A,4 =G,2- | G,2 ^F,2 G,4 | =F,2 D,2 ^F,2 F,2 | G,8 | C,2 E,D, C,B,,C,G,, | %59
 A,,B,,C,A,, D,C,B,,A,, | G,,4 C,2 E,2 | F,2 E,2 A,^G,A,F, | E,2 D,2 E,4 | z2 A,4 ^G,2 | %64
 A,2 F,2 E,4 | z4 z2 D,2- | D,2 ^C,B,, C,4 | D,A,^F,G, A,G,F,E, | D,4 z4 | %69
 z C,A,,>B,, C,>B,,A,,>G,, | F,,4 D,,4 | G,,4 z D,,F,,G,, | A,,B,,C,B,, A,,^G,, A,,2 | [E,,^G,]8 || %74
[M:4/4] x8 | x8 | x8 | x8 | x8 | x8 | x8 | x8 | x8 | x8 | x8 | x8 | x8 | x8 | x8 | x8 | x8 | x8 | %92
 x8 | x8 | x8 | x8 | x8 | x8 | x8 | x8 | x8 || x8 | x8 | x8 | x8 | x8 | x8 | x8 | x8 | x8 | x8 | %111
 x8 | x8 | x8 | x8 | x8 | x8 | x8 | x8 | x8 | x8 | x8 | x8 | x8 | x8 | x8 | x8 | x8 || x8 | x8 | %130
 x8 | x8 | x8 | x8 | x8 | x8 | x8 | x8 | x8 | x8 | x8 | x8 | x8 | x8 | x8 | x8 | x8 | x8 | x8 | %149
 x8 | x8 | x8 | x8 | x8 | x8 | x8 | x8 | x8 | x8 | x8 | x8 ||[M:4/4] z8 | z8 | z8 | z8 | z8 | %166
 z2 E,2 ^D,2 =D,2 | ^C,2 =C,2 B,,2 _B,,2 | A,,8 | z8 | z4 z2 A,2 | ^F,2 =F,2 D,E,F,G, | A,8 | %173
 A,2 F,2 E,4 | D,4 z4 | z4 z2 A,,2 | _B,,2 =B,,4 C,2- | C,2 ^C,2 D,4 | G,4 E,4 | A,2 A,,2 D,2 D,2 | %180
 G,6 F,2 | E,6 D,2 | ^C,2 =C,2 B,,4 | A,,4 z4 | z4 z2 A,,2 | _B,,2 =B,,2 C,2 ^C,2 | D,4 z4 | z8 | %188
 z2 D,2 ^C,2 =C,2 | B,,2 _B,,2 A,,2 D,2 | E,8 | A,,2 B,,2 C,2 D,2 | E,8 |] %193

